X:268
T:Lilting Fisherman, The
T:Bit of Ginger, The
R:jig
C:Paddy Killoran (1904-1965)
Z:id:hn-jig-268
M:6/8
K:G
dBG GBd | gfg ege | dBG GFG | AFD cBA |
dBG GBd | gfg ege | dBG FGA | BGG G2B :|
K:D
|: ABA AFA | fgf f2e | dfe dcB | ABA AFG |
~A3 AFA | BGB B2d | cec ABc |1 dfe dcB :|2 dfe d2e ||
K:G
P:variations
|: dBG GBd | ~g3 e/f/ge | dBG GFG | AFD cBA |
dBG GBd | ~g3 e/f/ge | dBG FGA | BGG G2B :|
K:D
|: ~A3 AFA | fgf f2e | dce dcB | ABA AFG |
AFA AFA | ~B3 Bcd | cec ABc |1 dfe dcB :|2 dfe d2e ||

